packages/astro-components-stencil/src/icons/grid-off.svg

<svg width="24" height="24" viewBox="0 0 24 24" fill="none" xmlns="http://www.w3.org/2000/svg">
<path fill-rule="evenodd" clip-rule="evenodd" d="M2.11998 1.83986L22.16 21.8799C22.55 22.2699 22.55 22.9099 22.16 23.2999C21.77 23.6899 21.14 23.6899 20.75 23.2999L19.45 21.9999H3.99998C2.89998 21.9999 1.99998 21.0999 1.99998 19.9999V4.54986L0.70998 3.24986C0.31998 2.85986 0.31998 2.22986 0.70998 1.83986C1.09998 1.44986 1.72998 1.44986 2.11998 1.83986ZM7.99998 3.99986V4.88986L9.99998 6.88986V3.99986H14V7.99986H11.11L13.11 9.99986H14V10.8899L16 12.8899V9.99986H20V13.9999H17.11L19.11 15.9999H20V16.8899L22 18.8899V3.99986C22 2.89986 21.1 1.99986 20 1.99986H5.10998L7.10998 3.99986H7.99998ZM16 3.99986H19C19.55 3.99986 20 4.44986 20 4.99986V7.99986H16V3.99986ZM9.99998 12.5499L11.45 13.9999H9.99998V12.5499ZM5.44998 7.99986L3.99998 6.54986V7.99986H5.44998ZM7.99998 19.9999H4.99998C4.44998 19.9999 3.99998 19.5499 3.99998 18.9999V15.9999H7.99998V19.9999ZM3.99998 13.9999H7.99998V10.5499L7.44998 9.99986H3.99998V13.9999ZM14 19.9999H9.99998V15.9999H13.45L14 16.5499V19.9999ZM16 18.5499V19.9999H17.45L16 18.5499Z" fill="black"/>
</svg>

<svg xmlns="http://www.w3.org/2000/svg" viewBox="0 0 24 24"><g xmlns="http://www.w3.org/2000/svg" id="grid-off" fill-rule="nonzero">
            <path d="M8 4v.89l2 2V4h4v4h-2.89l2 2H14v.89l2 2V10h4v4h-2.89l2 2H20v.89l2 2V4c0-1.1-.9-2-2-2H5.11l2 2H8zm8 0h3c.55 0 1 .45 1 1v3h-4V4zm6.16 17.88L2.12 1.84A.996.996 0 10.71 3.25L2 4.55V20c0 1.1.9 2 2 2h15.45l1.3 1.3c.39.39 1.02.39 1.41 0 .39-.39.39-1.03 0-1.42zM10 12.55L11.45 14H10v-1.45zm-6-6L5.45 8H4V6.55zM8 20H5c-.55 0-1-.45-1-1v-3h4v4zm0-6H4v-4h3.45l.55.55V14zm6 6h-4v-4h3.45l.55.55V20zm2 0v-1.45L17.45 20H16z"/>
        </g></svg>
